static/assets/images/tokens/eure.svg

<svg width="256" height="256" viewBox="0 0 256 256" fill="none" xmlns="http://www.w3.org/2000/svg">
<path d="M128 256C198.692 256 256 198.692 256 128C256 57.3076 198.692 0 128 0C57.3076 0 0 57.3076 0 128C0 198.692 57.3076 256 128 256Z" fill="url(#paint0_linear_9209_870)"/>
<path d="M194.082 171.387L176.263 161.127C176.016 160.987 175.737 160.912 175.453 160.911C175.305 160.912 175.158 160.932 175.015 160.971C174.808 161.029 174.614 161.128 174.445 161.263C174.276 161.397 174.136 161.564 174.033 161.754C172.501 164.56 170.597 167.146 168.374 169.443C165.376 172.543 161.94 175.187 158.174 177.289C154.537 179.305 150.637 180.802 146.586 181.738C142.777 182.639 138.879 183.106 134.966 183.131C128.069 183.194 121.261 181.58 115.127 178.428C109.235 175.381 104.012 171.186 99.7649 166.09C97.6908 163.588 95.8474 160.905 94.2573 158.071L92.1622 154.351H137.401C137.831 154.351 138.243 154.18 138.546 153.876C138.85 153.572 139.021 153.16 139.021 152.731V138.637C139.021 138.208 138.85 137.796 138.546 137.492C138.243 137.188 137.831 137.018 137.401 137.018H87.1296L86.8813 134.793C86.6138 132.392 86.4786 129.978 86.4763 127.563C86.4763 125.538 86.5843 123.416 86.8003 121.245L87.027 118.993H137.401C137.831 118.993 138.243 118.823 138.546 118.519C138.85 118.215 139.021 117.803 139.021 117.373V103.28C139.021 102.851 138.85 102.439 138.546 102.135C138.243 101.831 137.831 101.66 137.401 101.66H91.6816L93.6201 97.9939C94.9911 95.3921 96.5732 92.9071 98.3502 90.5639C102.372 85.3069 107.467 80.9665 113.297 77.8314C119.312 74.5483 126.445 72.8798 134.501 72.8798C138.327 72.8962 142.139 73.3235 145.873 74.1542C149.78 75.0213 153.556 76.3974 157.104 78.2471C163.752 81.7842 169.279 87.1064 173.066 93.6147C173.179 93.8068 173.33 93.9736 173.51 94.1046C173.691 94.2356 173.896 94.328 174.113 94.376C174.227 94.4019 174.343 94.4146 174.459 94.4138C174.789 94.4146 175.111 94.3148 175.382 94.1277L191.933 82.7289C192.271 82.4961 192.508 82.1436 192.596 81.7426C192.684 81.3417 192.617 80.9222 192.408 80.569C187.505 72.3237 180.496 65.4174 171.576 60.0501C161.478 53.9755 149.302 50.8706 135.398 50.8706C123.599 50.8706 112.951 53.0953 103.745 57.4799C94.9538 61.5652 87.0551 67.3442 80.5006 74.4861C73.9462 81.628 68.8647 89.9925 65.547 99.1008C65.493 99.2358 65.4498 99.3708 65.4066 99.5058V99.5436C65.3634 99.684 65.3148 99.8243 65.2608 99.9647L64.6669 101.628H29.8712C29.4415 101.628 29.0295 101.799 28.7257 102.102C28.4219 102.406 28.2513 102.818 28.2513 103.248V117.341C28.2513 117.771 28.4219 118.183 28.7257 118.486C29.0295 118.79 29.4415 118.961 29.8712 118.961H60.8547L60.6765 121.623C60.5523 123.54 60.4929 125.138 60.4929 126.645C60.4929 129.156 60.6225 131.71 60.8709 134.237L61.1409 136.985H29.8712C29.4415 136.985 29.0295 137.156 28.7257 137.46C28.4219 137.763 28.2513 138.175 28.2513 138.605V152.698C28.2513 153.128 28.4219 153.54 28.7257 153.844C29.0295 154.148 29.4415 154.318 29.8712 154.318H65.5956L66.2274 155.895C69.766 164.863 74.8341 173.148 81.2062 180.383C87.7525 187.766 95.643 193.836 104.457 198.272C113.34 202.786 123.302 205.075 134.058 205.075C140.419 205.044 146.753 204.252 152.925 202.716C159.222 201.192 165.304 198.889 171.03 195.858C176.56 192.928 181.65 189.235 186.149 184.886C189.579 181.58 192.464 177.753 194.697 173.547C194.894 173.177 194.939 172.745 194.824 172.343C194.71 171.94 194.443 171.597 194.082 171.387Z" fill="white"/>
<defs>
<linearGradient id="paint0_linear_9209_870" x1="63.9919" y1="17.1333" x2="192.008" y2="238.867" gradientUnits="userSpaceOnUse">
<stop stop-color="#0095D7"/>
<stop offset="1" stop-color="#0072AA"/>
</linearGradient>
</defs>
</svg>

<svg xmlns="http://www.w3.org/2000/svg" fill="none" viewBox="0 0 256 256"><path fill="url(#paint0_linear_9209_870)" d="M128 256c70.692 0 128-57.308 128-128S198.692 0 128 0 0 57.308 0 128s57.308 128 128 128"/><path fill="#fff" d="m194.082 171.387-17.819-10.26a1.66 1.66 0 0 0-.81-.216 1.61 1.61 0 0 0-1.42.843 35.6 35.6 0 0 1-5.659 7.689 44 44 0 0 1-10.2 7.846 44.6 44.6 0 0 1-11.588 4.449 52 52 0 0 1-11.62 1.393 42.56 42.56 0 0 1-19.839-4.703 49.7 49.7 0 0 1-15.362-12.338 54 54 0 0 1-5.508-8.019l-2.095-3.72h45.239a1.62 1.62 0 0 0 1.62-1.62v-14.094a1.62 1.62 0 0 0-1.62-1.619H87.13l-.249-2.225a66 66 0 0 1-.405-7.23c0-2.025.108-4.147.324-6.318l.227-2.252h50.374a1.62 1.62 0 0 0 1.62-1.62V103.28a1.62 1.62 0 0 0-1.62-1.62h-45.72l1.94-3.666a54 54 0 0 1 4.73-7.43 46.6 46.6 0 0 1 14.946-12.733c6.015-3.283 13.148-4.951 21.204-4.951 3.826.016 7.638.444 11.372 1.274a45.7 45.7 0 0 1 11.231 4.093 40.45 40.45 0 0 1 15.962 15.368 1.62 1.62 0 0 0 1.393.799c.33 0 .652-.1.923-.286l16.551-11.4a1.62 1.62 0 0 0 .475-2.159c-4.903-8.245-11.912-15.152-20.832-20.519-10.098-6.074-22.274-9.18-36.178-9.18-11.799 0-22.447 2.225-31.653 6.61A73.7 73.7 0 0 0 65.547 99.1c-.054.136-.097.27-.14.406v.038q-.065.21-.146.42l-.594 1.664H29.87a1.623 1.623 0 0 0-1.62 1.62v14.093a1.617 1.617 0 0 0 1.62 1.62h30.984l-.178 2.662a77 77 0 0 0-.184 5.022c0 2.511.13 5.065.378 7.592l.27 2.748H29.87a1.62 1.62 0 0 0-1.62 1.62v14.093a1.62 1.62 0 0 0 1.62 1.62h35.725l.631 1.577a83.3 83.3 0 0 0 14.98 24.488 77.8 77.8 0 0 0 23.25 17.889c8.883 4.514 18.845 6.803 29.601 6.803a79.7 79.7 0 0 0 18.867-2.359 77.8 77.8 0 0 0 18.105-6.858 66.7 66.7 0 0 0 15.119-10.972 45.2 45.2 0 0 0 8.548-11.339c.197-.37.242-.802.127-1.204a1.62 1.62 0 0 0-.742-.956"/><defs><linearGradient id="paint0_linear_9209_870" x1="63.992" x2="192.008" y1="17.133" y2="238.867" gradientUnits="userSpaceOnUse"><stop stop-color="#0095D7"/><stop offset="1" stop-color="#0072AA"/></linearGradient></defs></svg>
